X: 39675
T: Tenpenny Bit, The
R: jig
M: 6/8
K: Adorian
g/f/|edB G2A|Bed Bcd|edB G2A|BAG AGE|
DED G2A|Bed Bcd|ede gdB|{c}BAG A2:|
|:d|e2f gfg|eag fed|e2f gfg|efg a2a|
bag agf|gfe def|gfe fdB|{c}BAG A2:|

